X:462
T:Misty Mountain
M:6/8
L:1/8
K:G
"Am"EAA ABd|edB AGE|"G"~G3 GAB|dBA GED|
"Am"EAA ABd|edB AGE|"C"efg "G"dBG|"Am"BAG A3:|
|:"Am"age a2 b|age edB|AGE "G"G2 A|~B3 GED|
"Am"age a2 b|age edB|AGE "G"G2 A|BAG "Am"A2 a|
age a2 b|age edB|AGE "G"G2 A|~B3 "Em"GED|
EDE G2 A|"G"BAG Bcd|"Em"efg "G"dBG|"Am"BAG A3|]
